X:1
T:Let Us Awake
T:Let Us Awake
T:George E. Myers
T:George E. Myers, 1899
T:Public Domain Courtesy of the Cyber Hymnal™
T:Public Domain Courtesy of the Cyber Hymnal™
C:George E. Myers
Z:Public Domain
Z:Courtesy of the Cyber Hymnal™
%%score ( 1 2 ) ( 3 4 )
L:1/8
Q:1/4=93
M:4/4
K:F
V:1 treble 
V:2 treble 
V:3 bass 
V:4 bass 
V:1
 (3C[CF][FA] | [Fc]2 [Fc]>[Fd] [Fc]2 F>[FG] | [FA]>[FB] [FA]>[F^G] [FA]2 (3[Ac][=GB][FA] | %3
w: 1.~Let us a-|wake out of sleep, And be|ac- tive for the Lord, Let us a-|
w: 2.~Let us be|loy- al to Christ In the|con- flict that is on; Let us be|
w: 3.~Let us a-|rise in our might, Je- sus|calls for vol- un- teers, Let us a-|
 [EG]6 (3[EG][DF][EG] | [FA]6 (3C[CF][FA] | [Fc]2 [Fc]>[Fd] [Fc]2 F>[FG] | %6
w: wake, let us a-|wake. Let us go|forth with a will, Trust- ing|
w: brave, let us be|brave; Let us be|true in the strife, ’Till the|
w: rise, let us a-|rise; Let us e-|quip for the fight, Cast- ing|
 [FA]>[FB] [FA]>[F^G] [FA]2 (3[Ac][=GB][FA] | [EG]6 (3[EG][FA][EG] | !fermata!F6 || %9
w: to His bless- èd word; Let us a-|wake, let us a-|wake.|
w: vic- to- ry is won; Let us be|brave, let us be|brave.|
w: off all doubts and fears, Let us a-|rise, let us a-|rise.|
"^Refrain" (3[FA][GB][Ac] | [Bd]6 (3[df][ce][Bd] | [Ac]6 (3[FA][FA][FA] | %12
w: |||
w: Let us a-|wake, let us a-|wake; Let us pre-|
w: |||
 [EG]2 [Ec]2 ([Ge][Fd]) ([Ec][D=B]) | [Ec]6 (3C[CF][CG] | [FA]2 [FA]>[GB] [Ac]2 (3[FA][FA][FA] | %15
w: |||
w: pare our ar- * mor *|strong, Let us go|forth in the fight, Let us be|
w: |||
 [FB]2 [FB]>[Fc] !fermata![Fd]2 [Ff]>[Fd] | [Fc]2 (FB) [FA]2 [EG]2 | [CF]6 |] %18
w: |||
w: bold for the right, Then we’ll|join the * vic- tor’s|song.|
w: |||
V:2
 C x | x6 F3/2 x/ | x8 | x8 | x6 C x | x6 F3/2 x/ | x8 | x8 | (F2 D2 C2) || x2 | x8 | x8 | x8 | %13
 x6 C x | x8 | x8 | x2 F2 x4 | x6 |] %18
V:3
 (3[F,A,][F,A,][F,C] | [F,A,]2 [F,A,]>[F,B,] [F,A,]2 [F,A,]>[F,B,] | %2
 [F,C]>[F,D] [F,C]>[F,=B,] [F,C]2 z2 | z2 (3[C,C][C,C][C,C] [C,C]2 z2 | %4
 z2 (3[F,C][F,C][F,C] [F,C]2 (3[F,A,][F,A,][F,C] | [F,A,]2 [F,A,]>[F,B,] [F,A,]2 [F,A,]>[F,B,] | %6
 [F,C]>[F,D] [F,C]>[F,=B,] [F,C]2 z2 | z2 (3[C,E][C,E][C,E] [C,E]2 (3[C,B,][C,C][C,B,] | %8
 !fermata!A,2 B,2 !fermata!A,2 || z2 | z2 (3[B,F][B,F][B,F] [B,F]2 z2 | %11
 z2 (3[F,F][F,F][F,F] [F,F]2 (3[F,C][F,C][F,C] | [G,C]2 [G,C]2 (C=B,) (CD) | %13
 [C,C]6 (3[F,A,][F,A,][F,B,] | [F,C]2 C>[F,C] [F,F]2 (3[E,C][E,C][E,C] | %15
 [D,B,]2 [D,B,]>[C,A,] !fermata![B,,B,]2 [B,D]>B, | [A,C]2 ([A,C][B,D]) C2 [C,B,]2 | [F,A,]6 |] %18
V:4
 x2 | x8 | x8 | x8 | x8 | x8 | x8 | x8 | F,6 || x2 | x8 | x8 | x4 G,2 G,2 | x8 | x2 [F,C]3/2 x9/2 | %15
 x15/2 B,/ | x4 C2 x2 | x6 |] %18

